svg/transport/rare_fog_lights_line.svg

<?xml version="1.0" encoding="UTF-8"?>
<svg width="24px" height="24px" viewBox="0 0 24 24" version="1.1" xmlns="http://www.w3.org/2000/svg" xmlns:xlink="http://www.w3.org/1999/xlink">
    <title>rare_fog_lights_line</title>
    <g id="页面-1" stroke="none" stroke-width="1" fill="none" fill-rule="evenodd">
        <g id="Transport" transform="translate(-240.000000, -192.000000)" fill-rule="nonzero">
            <g id="rare_fog_lights_line" transform="translate(240.000000, 192.000000)">
                 <path d="M24,0 L24,24 L0,24 L0,0 L24,0 Z M12.5934901,23.257841 L12.5819402,23.2595131 L12.5108777,23.2950439 L12.4918791,23.2987469 L12.4918791,23.2987469 L12.4767152,23.2950439 L12.4056548,23.2595131 C12.3958229,23.2563662 12.3870493,23.2590235 12.3821421,23.2649074 L12.3780323,23.275831 L12.360941,23.7031097 L12.3658947,23.7234994 L12.3769048,23.7357139 L12.4804777,23.8096931 L12.4953491,23.8136134 L12.4953491,23.8136134 L12.5071152,23.8096931 L12.6106902,23.7357139 L12.6232938,23.7196733 L12.6232938,23.7196733 L12.6266527,23.7031097 L12.609561,23.275831 C12.6075724,23.2657013 12.6010112,23.2592993 12.5934901,23.257841 L12.5934901,23.257841 Z M12.8583906,23.1452862 L12.8445485,23.1473072 L12.6598443,23.2396597 L12.6498822,23.2499052 L12.6498822,23.2499052 L12.6471943,23.2611114 L12.6650943,23.6906389 L12.6699349,23.7034178 L12.6699349,23.7034178 L12.678386,23.7104931 L12.8793402,23.8032389 C12.8914285,23.8068999 12.9022333,23.8029875 12.9078286,23.7952264 L12.9118235,23.7811639 L12.8776777,23.1665331 C12.8752882,23.1545897 12.8674102,23.1470016 12.8583906,23.1452862 L12.8583906,23.1452862 Z M12.1430473,23.1473072 C12.1332178,23.1423925 12.1221763,23.1452606 12.1156365,23.1525954 L12.1099173,23.1665331 L12.0757714,23.7811639 C12.0751323,23.7926639 12.0828099,23.8018602 12.0926481,23.8045676 L12.108256,23.8032389 L12.3092106,23.7104931 L12.3186497,23.7024347 L12.3186497,23.7024347 L12.3225043,23.6906389 L12.340401,23.2611114 L12.337245,23.2485176 L12.337245,23.2485176 L12.3277531,23.2396597 L12.1430473,23.1473072 Z" id="MingCute" fill-rule="nonzero"></path>
                <path d="M17.2191,4.62473 C16.8741,4.19347 16.944,3.56418 17.3753,3.21917 C17.8066,2.87416 18.4359,2.94408 18.7809,3.37534 L19.3181,4.04683 C19.9105,4.7874 20.1882,5.6913 20.154,6.58459 L21.3714,7.07156 C21.8842,7.27667 22.1336,7.85864 21.9285,8.37143 C21.7234,8.88421 21.1414,9.13363 20.6286,8.92851 L19.5547,8.49896 C19.4595,8.64774 19.3531,8.7914 19.2353,8.92874 C18.6882,9.56701 18.6483,10.4942 19.1328,11.1761 L21.3714,12.0716 C21.8842,12.2767 22.1336,12.8586 21.9285,13.3714 C21.7234,13.8842 21.1414,14.1336 20.6286,13.9285 L20.2026,13.7581 C20.2312,14.6464 19.9512,15.5405 19.3681,16.2703 L21.3714,17.0716 C21.8842,17.2767 22.1336,17.8586 21.9285,18.3714 C21.7234,18.8842 21.1414,19.1336 20.6286,18.9285 L18.9863,18.2716 C19.0504,18.4239 19.1362,18.5695 19.2437,18.7039 L19.7809,19.3753 C20.1259,19.8066 20.056,20.4359 19.6247,20.7809 C19.1934,21.1259 18.5641,21.056 18.2191,20.6247 L17.6819,19.9532 C17.0895,19.2127 16.8118,18.3088 16.846,17.4155 L15.6286,16.9285 C15.1158,16.7234 14.8664,16.1414 15.0715,15.6286 C15.2766,15.1159 15.8586,14.8664 16.3714,15.0716 L17.4453,15.5011 C17.5405,15.3523 17.6469,15.2087 17.7647,15.0713 C18.3118,14.4331 18.3517,13.5059 17.8672,12.8239 L15.6286,11.9285 C15.1158,11.7234 14.8664,11.1414 15.0715,10.6286 C15.2766,10.1159 15.8586,9.86645 16.3714,10.0716 L16.7974,10.2419 C16.7688,9.35366 17.0488,8.45953 17.6319,7.72981 L15.6286,6.92851 C15.1158,6.7234 14.8664,6.14143 15.0715,5.62865 C15.2766,5.11586 15.8586,4.86645 16.3714,5.07156 L18.0137,5.7285 C17.9496,5.57619 17.8638,5.43057 17.7563,5.29622 L17.2191,4.62473 Z M13.7687,7.42936 C13.4386,4.23444 10.135,2.7346 7.38771,3.95562 L7.16292,4.05553 C4.02334,5.4509 2,8.56434 2,12 C2,15.4357 4.02334,18.5492 7.16292,19.9445 L7.38771,20.0444 C10.135,21.2655 13.4386,19.7656 13.7687,16.5707 C13.9031,15.2691 14,13.7308 14,12 C14,10.2693 13.9031,8.73099 13.7687,7.42936 Z M8.19999,5.78325 C9.89567,5.02961 11.6097,5.99346 11.7792,7.63485 C11.9073,8.87421 12,10.3437 12,12 C12,13.6564 11.9073,15.1259 11.7792,16.3652 C11.6097,18.0066 9.89567,18.9705 8.19999,18.2168 L7.9752,18.1169 C5.55787,17.0426 4,14.6454 4,12 C4,9.35472 5.55788,6.95752 7.9752,5.88316 L8.19999,5.78325 Z" id="形状" fill="#09244B"></path>
            </g>
        </g>
    </g>
</svg>

<svg xmlns="http://www.w3.org/2000/svg" width="24" height="24"><g fill="none" fill-rule="nonzero"><path d="M24 0v24H0V0h24ZM12.593 23.258l-.011.002-.071.035-.02.004-.014-.004-.071-.035c-.01-.004-.019-.001-.024.005l-.004.01-.017.428.005.02.01.013.104.074.015.004.012-.004.104-.074.012-.016.004-.017-.017-.427c-.002-.01-.009-.017-.017-.018Zm.265-.113-.013.002-.185.093-.01.01-.003.011.018.43.005.012.008.007.201.093c.012.004.023 0 .029-.008l.004-.014-.034-.614c-.003-.012-.01-.02-.02-.022Zm-.715.002a.023.023 0 0 0-.027.006l-.006.014-.034.614c0 .012.007.02.017.024l.015-.002.201-.093.01-.008.004-.011.017-.43-.003-.012-.01-.01-.184-.092Z"/><path fill="#09244B" d="M17.22 4.625a1 1 0 1 1 1.56-1.25l.538.672c.592.74.87 1.644.836 2.538l1.217.487a1 1 0 1 1-.742 1.857l-1.074-.43a3.833 3.833 0 0 1-.32.43 1.828 1.828 0 0 0-.102 2.247l2.238.896a1 1 0 1 1-.742 1.857l-.426-.17a3.823 3.823 0 0 1-.835 2.511l2.003.802a1 1 0 1 1-.742 1.857l-1.643-.657c.064.152.15.298.258.432l.537.671a1 1 0 1 1-1.562 1.25l-.537-.672a3.82 3.82 0 0 1-.836-2.537l-1.217-.488a1 1 0 1 1 .742-1.856l1.074.43c.096-.15.202-.293.32-.43a1.828 1.828 0 0 0 .102-2.248l-2.238-.896a1 1 0 1 1 .742-1.856l.426.17a3.822 3.822 0 0 1 .835-2.512l-2.003-.801a1 1 0 1 1 .742-1.857l1.643.657a1.824 1.824 0 0 0-.258-.433l-.537-.671Zm-3.451 2.804c-.33-3.195-3.634-4.694-6.381-3.473l-.225.1a8.694 8.694 0 0 0 0 15.889l.225.1c2.747 1.22 6.05-.28 6.38-3.474.135-1.302.232-2.84.232-4.571 0-1.73-.097-3.269-.231-4.57ZM8.2 5.783c1.696-.753 3.41.21 3.58 1.852.127 1.24.22 2.709.22 4.365 0 1.656-.093 3.126-.22 4.365-.17 1.642-1.884 2.606-3.58 1.852l-.225-.1a6.694 6.694 0 0 1 0-12.234l.225-.1Z"/></g></svg>
